X:1
T:D Major               Jacob Kimball, 1793
T:Isaac Watts, 1717 (Psalm 72, Parts 1 & 2)         88. 88. (L. M.)
T:Rowley
T:Transcribed from The Rural Harmony, 1793.
%%score [ 1 2 3 4 ]
L:1/8
Q:1/4=130
M:2/2
K:D
V:1 treble nm="Tr." snm="Tr."
V:2 treble nm="C." snm="C."
V:3 treble-8 nm="T." snm="T."
V:4 bass nm="B." snm="B."
V:1
"^1. The  saints shall flourish  in  his  days,  Dressed  in  the  robes   of       joy      and      praise.\n2. People  and  realms  of every  tongue   Dwell   on  his     love   with    swee – test     song;\n3. Let  every   creature  rise  and   bring     Pe –  cu –  liar     ho   –  nors     to      our      King;" F4 F2 F2 | %1
 A4 A4 | A4 c4 | d4 d4 | d2 B2 A2 de | f4 (e2 d2) | c8 |: z8 | z8 | z8 | %10
"^1. Peace,      like       a        ri – ver    from  his  throne,\n2. And           in  – fant      voi–ces   shall    pro –claim\n3. An     –      gels    de –  scend  with  songs   a – gain," e4 d2 d2 | %11
 f2 f2 d2 d2 | e4 e4 | f2 e2 d2 cB | A2 E2 F2 B2 | A4 A4 | A8 :| %17
V:2
"^1. The  saints shall flourish  in  his  days,  Dressed  in  the  robes   of       joy      and      praise.                                                 Peace,    like    a\n2. People  and  realms  of every  tongue   Dwell   on  his     love   with    swee – test     song;                                                    And       in –  fant \n3. Let  every   creature  rise  and   bring     Pe –  cu –  liar     ho   –  nors     to      our      King;                                                    An    –   gels   de –" D4 D2 D2 | %1
 F4 E4 | (F2 D2) A4 | A4 A4 | G2 GF E2 FG | A4 ^G4 | A8 |: z8 | z8 | A4 A2 A2 | %10
"^1.  ri        –     ver                 from       his            throne,  Shall     flow   to    na – tions,   flow  to   na –tions   yet     un  –  known.\n2.  voi     –     ces                 shall         pro     –    claim    Their    ear  –  ly    bles–sings,    ear –  ly  bles–sings   on     his        name.\n3.  –scend      with             songs        a         –     gain,     And    earth   re – peat,  And    earth   re–peat  the   long    A    –    men." A4 A4 | %11
 A4 ^G4 | A4 A4 | A2 A2 A2 A2 | A2 A2 A2 G2 | F4 E4 | F8 :| %17
V:3
"^1. The  saints shall flourish  in  his  days,  Dressed  in  the  robes   of       joy      and      praise.                         Peace,  like  a  ri –ver  from his \n2. People  and  realms  of every  tongue   Dwell   on  his     love   with    swee – test     song;                            And  infant  voi–ces  shall  pro–\n3. Let  every   creature  rise  and   bring     Pe –  cu –  liar     ho   –  nors     to      our      King;                           Angels   descend with songs  a–" A4 A2 A2 | %1
 d4 e4 | d4 e4 | f4 f4 | B2 e2 c2 A2 | d4 (c2 B2) | A8 |: z8 | e4 e2 e2 | f2 d2 e2 ed | %10
"^1. throne,  Shall flow  to  na–tions  yet  un – known.\n2. –claim   Their  ear –ly   blessings  on   his    name.\n3. –gain,     And  earth  re –peat  the  long  A – men." c2 c2 d2 A2 | %11
 d2 A2 B2 d2 | c4 c4 | d2 g2 f2 e2 | d2 g2 f2 e2 | d4 c4 | d8 :| %17
V:4
 D,4 D,2 F,2 | D,4 A,4 | F,4 A,4 | D,4 D,4 | G,2 G,2 A,G, F,E, | D,4 E,4 | A,,8 |: %7
"^1. Peace, like  a  river  from his throne,  Shall \n2. And  in–fant  voices  shall  proclaim  Their \n3. An–gels  de–scend  with songs  again,  And" A,4 A,2 A,2 | %8
 A,4 A,4 | D2 D,2 A,2 A,2 | %10
"^1. flow   to    na  –  tions    yet            un   –   known.\n2. ear  –  ly    bles – sings     on            his          name.\n3. earth   re – peat   the       long          A     –     men." A,2 A,2 F,E, D,2 | %11
 D,4 B,,4 | A,,4 A,,4 | D,2 C,2 D,2 A,,2 | D,2 C,2 D,2 G,2 | A,4 A,,4 | D,8 :| %17

